X: 1
T: Lilli Burlero   [A]
%T: Hush-a-bye Baby
C: Henry Purcell 1689
B: Barnes p.67
Z: 1997 by John Chambers <jc:trillian.mit.edu>
N: 24-bar duple minor longways
N: Playford Ball
M: 6/8
L: 1/8
K: A
|: "A"A>BA "(F#m)"c2c | "Bm"B>cB "E7"d3 |\
"A"ceA "Bm"d2c | "E7"BAG "A"A3 ::\
"A"a2g a2e | "G"=g2g "D"f2e |
| "A"ef^g a2e | "D"f>ec "E"B2e |\
"D"f>ed "A"cde |"D"fed "A"cde |\
"D"f>ec "Bm"d2c | "E7"BAG "A"A3 :|
